packages/amis-ui/src/icons/desk-empty.svg

<?xml version="1.0" encoding="UTF-8"?>
<svg viewBox="0 0 100 100" version="1.1" xmlns="http://www.w3.org/2000/svg" xmlns:xlink="http://www.w3.org/1999/xlink">
    <defs>
        <linearGradient x1="16.4979754%" y1="38.5280437%" x2="56.2620383%" y2="63.1848064%" id="linearGradient-1">
            <stop stop-color="#DCE0EF" offset="0%"></stop>
            <stop stop-color="#DCDFEA" offset="100%"></stop>
        </linearGradient>
        <linearGradient x1="28.8931882%" y1="55.7070718%" x2="93.8984841%" y2="48.875884%" id="linearGradient-2">
            <stop stop-color="#F1F3FA" offset="0%"></stop>
            <stop stop-color="#E8EAF0" offset="100%"></stop>
        </linearGradient>
    </defs>
    <g  stroke="none" stroke-width="1" fill="none" fill-rule="evenodd">
        <g  transform="translate(-78.000000, -416.000000)">
            <g  transform="translate(78.000000, 416.000000)">
                <rect  x="0" y="0" width="100" height="100"></rect>
                <ellipse  fill="url(#linearGradient-1)" fill-rule="nonzero" cx="50" cy="60.8" rx="44.4" ry="22.8"></ellipse>
                <ellipse  fill="url(#linearGradient-2)" fill-rule="nonzero" cx="50" cy="58.4" rx="44.4" ry="22.8"></ellipse>
                <path d="M69.3433052,42.0175272 C76.247385,46.0034899 79.4224575,53.2531227 79.4002852,61.1800089 C79.3886692,65.143452 77.9808226,67.9246181 75.7170053,69.2307527 C73.4419251,70.5143678 70.3108743,70.3116918 66.8644658,68.3299702 L34.8566948,50.8677155 C27.952615,46.8817529 22.3775425,37.2208603 22.399666,29.293974 C22.4225936,21.3670878 28.0427172,18.1805696 34.946797,22.1665323 C35.836556,22.6732225 36.6925268,23.2699909 37.5259719,23.9568376 C38.2918405,15.8610546 44.5764677,12.8209136 52.201365,17.2122284 C59.8149994,21.6035432 66.0658383,31.8837238 66.775393,40.8352501 C67.5975754,41.1054849 68.4648089,41.510837 69.3433052,42.0175272 Z"  fill="#E0E3EF" fill-rule="nonzero"></path>
                <path d="M42.92,29.6824613 C42.92,29.2351107 43.2826494,28.8724613 43.73,28.8724613 C43.8912677,28.8724613 44.0488647,28.9206 44.1826072,29.0107123 L49.0426072,32.2852555 C49.2660417,32.4357999 49.4,32.6875855 49.4,32.9570045 L49.4,41.12 L48.271,40.4049536 L49.4,41.1660576 L49.4,48.288706 C49.4,48.7360567 49.0373506,49.098706 48.59,49.098706 C48.4366236,49.098706 48.2863993,49.0551595 48.1568008,48.9731317 L43.2968008,45.8970518 C43.0622016,45.748565 42.92,45.4902682 42.92,45.2126262 L42.92,29.6824613 Z"  fill="#FFFFFF" fill-rule="nonzero"></path>
                <path d="M53.9026072,44.1307123 L58.7626072,47.4052555 C58.9860417,47.5557999 59.12,47.8075855 59.12,48.0770045 L59.12,54.768706 C59.12,55.2160567 58.7573506,55.578706 58.31,55.578706 C58.1566236,55.578706 58.0063993,55.5351595 57.8768008,55.4531317 L53.0168008,52.3770518 C52.7822016,52.228565 52.64,51.9702682 52.64,51.6926262 L52.64,44.8024613 C52.64,44.3551107 53.0026494,43.9924613 53.45,43.9924613 C53.6112677,43.9924613 53.7688647,44.0406 53.9026072,44.1307123 Z"  fill="#F7F8FB" fill-rule="nonzero"></path>
            </g>
        </g>
    </g>
</svg>

<svg viewBox="0 0 100 100" xmlns="http://www.w3.org/2000/svg"><defs><linearGradient x1="16.498%" y1="38.528%" x2="56.262%" y2="63.185%" id="a"><stop stop-color="#DCE0EF" offset="0%"/><stop stop-color="#DCDFEA" offset="100%"/></linearGradient><linearGradient x1="28.893%" y1="55.707%" x2="93.898%" y2="48.876%" id="b"><stop stop-color="#F1F3FA" offset="0%"/><stop stop-color="#E8EAF0" offset="100%"/></linearGradient></defs><g fill="none" fill-rule="evenodd"><path d="M0 0h100v100H0z"/><ellipse fill="url(#a)" fill-rule="nonzero" cx="50" cy="60.8" rx="44.4" ry="22.8"/><ellipse fill="url(#b)" fill-rule="nonzero" cx="50" cy="58.4" rx="44.4" ry="22.8"/><path d="M69.343 42.018c6.904 3.985 10.08 11.235 10.057 19.162-.011 3.963-1.42 6.745-3.683 8.05-2.275 1.284-5.406 1.082-8.853-.9L34.857 50.868C27.953 46.882 22.377 37.22 22.4 29.294c.023-7.927 5.643-11.113 12.547-7.127.89.506 1.746 1.103 2.579 1.79.766-8.096 7.05-11.136 14.675-6.745 7.614 4.392 13.865 14.672 14.574 23.623.823.27 1.69.676 2.568 1.183Z" fill="#E0E3EF" fill-rule="nonzero"/><path d="M42.92 29.682a.81.81 0 0 1 1.263-.671l4.86 3.274a.81.81 0 0 1 .357.672v8.163l-1.129-.715 1.129.761v7.123a.81.81 0 0 1-1.243.684l-4.86-3.076a.81.81 0 0 1-.377-.684v-15.53Z" fill="#FFF" fill-rule="nonzero"/><path d="m53.903 44.13 4.86 3.275a.81.81 0 0 1 .357.672v6.692a.81.81 0 0 1-1.243.684l-4.86-3.076a.81.81 0 0 1-.377-.684v-6.89a.81.81 0 0 1 1.263-.672Z" fill="#F7F8FB" fill-rule="nonzero"/></g></svg>
